!!!COM: Scarlatti, Domenico
!!!CDT: 1685///-1757///
!!!OTL: Sonata in C Major, K.052, L.267
!!!SCT: K. 52
!!!SCT: L. 267
**kern	**dynam	**kern	**dynam
*staff2	*staff2	*staff1	*staff1
*Icemba	*Icemba	*Icemba	*Icemba
*>[A,A1,A,A2,B,B,C]	*>[A,A1,A,A2,B,B,C]	*>[A,A1,A,A2,B,B,C]	*>[A,A1,A,A2,B,B,C]
*>norep[A,A2,B,C]	*>norep[A,A2,B,C]	*>norep[A,A2,B,C]	*>norep[A,A2,B,C]
*>A	*>A	*>A	*>A
*clefF4	*clefF4	*clefG2	*clefG2
*k[b-]	*k[b-]	*k[b-]	*k[b-]
*met(C)	*met(C)	*met(C)	*met(C)
*M4/4	*M4/4	*M4/4	*M4/4
*MM80	*MM80	*MM80	*MM80
=1-	=1-	=1-	=1-
(8D\L	.	4.f/ 4.dd/	mf
8B-\	.	.	.
8A\	.	.	.
8G\J	.	8g\ 8cc#\ (8ee\	.
8F\L	.	4.a\ 4.dd\ 4.ff\)	.
8E\	.	.	.
8D\	.	.	.
8C#\J	.	8b-\ (8gg\	.
=2	=2	=2	=2
*	*	*^	*
8D\L	.	2r	8a\ 8dd\ 8ff\)	.
8E\	.	.	4g\ (4ee\	.
8F\	.	.	.	.
8G\J	.	.	8f\ 8dd\	.
8A\L	.	8cc#/L	4.a\	.
8Bn\	.	8dd/J	.	.
8c#\	.	[4ee/)	.	.
8A\J	.	.	8g\	.
=3	=3	=3	=3	=3
8d\L	.	8ee/]	4f\	.
8F\	.	(4dd/	.	.
8G\	.	.	8e\L	.
8A\J	.	8ee/	8c#\J	.
8D\L)	.	2r	4.a\ 4.dd\ 4.ff\)	<
(8d\	.	.	.	.
8cn\	.	.	.	.
8B-\J	.	.	8b-\ 8ee\ (8gg\	.
=4	=4	=4	=4	=4
8A\ 8c\L	.	4.r	4.cc\ 4.ff\ 4.aa\)	.
8G\ 8B-\	.	.	.	.
8F\ 8A\	.	.	.	.
8G\ 8B-\J	.	16ee/LL	8b-\ (8gg\	.
.	.	16dd/JJ	.	.
4A\ 4c\	.	4.r	8cc\ 8ff\)	.
.	.	.	4g\ 4ee\	.
[4B-\ 4d\)	.	.	.	.
.	.	16b-/LL	8f\ (8dd\	.
.	.	16a/JJ	.	.
=5	=5	=5	=5	=5
*^	*	*	*	*
4c/	8B-\L]	.	4cc/)	8e\ 8g\L	.
.	(8A\	.	.	(8f\	.
4r	8G\	.	4r	8g\	.
.	8F\J	.	.	8a\J	.
2r	4E\) 4G\ 4B-\ 4c\	.	8b-/	4g\)	.
.	.	.	(4gg/	.	.
.	4F\ 4A\ 4c\	.	.	4a\	.
.	.	.	8ff/	.	.
=6	=6	=6	=6	=6	=6
4C\	(8G/L	.	8ee/L	8g\L	.
.	8c/	.	8ff/	8a\	.
4r	8B-/	.	8gg/	8b-\	.
.	8A/J	.	8aa/J	8cc\J	.
4G\ 4B-\)	2r	.	4.bb-/	8dd\L	.
.	.	.	.	8ee\J	.
4F\ 4c\ 4f\	.	.	.	[4ff\	.
.	.	.	8aa/	.	.
*v	*v	*	*	*	*
=7	=7	=7	=7	=7
(8C\L	.	8gg/)	8ff\L]	.
8c\	.	(4ccc/	8ee\	f
8d\	.	.	8ff\	.
8e\J	.	8bb-/	8gg\J	.
8f\L	.	8bb-/L	8cc\	.
8A\	.	8aa/J	4ff\	.
8B-\	.	4gg/	.	.
8c\J	.	.	8ee\	.
=8	=8	=8	=8	=8
*^	*	*	*	*
8r	8d\L)	.	(8ee/L	8ff\)	.
(8f/L	8D\	.	8dd/J	4b-\	.
8g/	8E\	.	4cc/	.	.
[8f/J	8F\J	.	.	4a\	.
8f/L]	8G\L	.	4b-/	.	.
16e/L	8GG\	.	.	4g\	.
16d/JJ	.	.	.	.	.
4c/)	8AA\	.	4a/	.	.
.	8BB-\J	.	.	[8f\	.
=9	=9	=9	=9	=9	=9
2r	8C/L	.	8g/	8f\L])	.
.	8CC/	.	(4cc/	8e\	mf
.	8DD/	.	.	8f\	.
.	8EE/J	.	4b-/	8g\J	.
8FF/	4FF\	.	.	8c\	.
(4F/	.	.	8a/	4f\	.
.	4C\	.	4g/	.	.
[8c/	.	.	.	[8e\	.
=10	=10	=10	=10	=10	=10
8c/]	4D\	.	4f/	8e\]	.
4B-/	.	.	.	4d\	.
.	4E\	.	[4g/	.	.
16A/LL	.	.	.	8c\	>
16G/JJ	.	.	.	.	.
4A/	4F\	.	8g/]	2r	.
.	.	.	4f/	.	.
[4B-/)	[4G\	.	.	.	.
.	.	.	16e/LL	.	.
.	.	.	16d/JJ	.	.
=11	=11	=11	=11	=11	=11
8B-/L]	8G\L]	.	8e/L)	4r	p
8c/	(8A\	.	(8f/	.	.
8B-/	8G\	.	8g/	8e\L	.
8A/J	8F\J	.	8a/J	8f\J	.
2r	4E\) 4G\ 4B-\ 4c\	.	8b-/)	4g\	.
.	.	.	(4gg/	.	.
.	(4F\ 4A\ [4c\	.	.	4a\	mf
.	.	.	[8ff/	.	.
=12	=12	=12	=12	=12	=12
4C\)	8c/L]	.	8ff/L]	4.g\	.
.	(8c/	.	16ee/L	.	.
.	.	.	16dd/JJ	.	.
4r	8B-/	.	8ee/L	.	.
.	8A/J)	.	8ff/J	8a\	.
4G\ 4B-\ 4c\	2r	.	4.b-/	8b-\L	.
.	.	.	.	8e\J	.
4F\ 4c\	.	.	.	[4f\	.
.	.	.	8a/	.	.
=13	=13	=13	=13	=13	=13
(2c/	8c\L	.	8g/)	8f\L]	.
.	8C\	.	(4cc/	8e\	.
.	8D\	.	.	8f\	.
.	8E\J	.	8b-/	8g\J	.
4c/	4F\)	.	8b-/L	2r	.
.	.	.	16a-/L	.	.
.	.	.	16g/JJ	.	.
([4f/	4r	.	8a-/L	.	<
.	.	.	8cc/J	.	.
=14	=14	=14	=14	=14	=14
8f/L]	2F\	.	4.ff/	8r	.
8e-/	.	.	.	4.f\	.
8d/	.	.	.	.	.
8c/J	.	.	8ee-/	.	.
8G/L	2G\	.	8dd/L	8r	.
8e-/	.	.	8cc/	8g\L	.
8d/	.	.	8bn/	8f\	.
8c/J)	.	.	8cc/J	8a-\J	.
=15	=15	=15	=15	=15	=15
4d/	8Bn\L	.	8g/L	8g\	.
.	(8G\	.	(8dd/)	8r	p
2.r	8c\	.	8ee-/	8e-\L	.
.	8d\J	.	8bn/J	8f\J	.
.	8en\L	.	8b-/L)	4g\	.
.	8c\	.	(8gg/	.	<
.	8f\	.	8aa-/	8a-\L	.
.	8g\J	.	8een/J	8b-\J	.
*v	*v	*	*	*	*
=16	=16	=16	=16	=16
8a-\L)	.	8ff/L)	8cc\L	.
(8A-\	.	8dd/	(8f\	.
8G\	.	8ee-/	8e-\	.
8F\J	.	8bn/J	8d\J	.
8En\L)	.	8cc/L	8c\) 8g\L	.
(8c\	.	8gg/	(8cn\	.
8f\	.	8aa-/	8a-\	.
8g\J	.	8een/J	8b-\J	.
=17	=17	=17	=17	=17
8a-\L)	.	8ff/L	8cc\L)	.
(8A-\	.	(8dd/	8f\	.
8G\	.	8ee-/	8e-\	.
8F\J	.	8bn/J	8d\J	.
8En\)	.	8cc/L)	8c\ 8g\	.
(8f\	.	(8aan/	8an\	.
4g\	.	8bb-/	4b-\	.
.	.	8een/J	.	.
=18	=18	=18	=18	=18
*^	*	*	*	*
8an\L)	2r	.	8ff/)	8a\	.
(8A\J	.	.	(4ccc/	8cc\L	f
4B-\	.	.	.	8dd\	.
.	.	.	4bb-/	16gg\L	.
.	.	.	.	16ff\JJ	.
*v	*v	*	*	*	*
*clefG2	*clefG2	*	*	*
*^	*	*	*	*
2c\)	8c/L	.	.	8ee\	.
.	(8a/	.	16aa/LL	8r	.
.	.	.	16ff/JJ	.	.
.	8b-/	.	4gg/	8r	.
.	[8cc/J	.	.	[8ee\	.
=19	=19	=19	=19	=19	=19
8cc/]	4d\	.	4ff/	8ee\]	.
4b-/	.	.	.	4dd\	.
.	4e\	.	4.gg/	.	.
16a/LL	.	.	.	16cc\LL	.
16g/JJ	.	.	.	16b-\JJ	.
*v	*v	*	*	*	*
*clefF4	*clefF4	*	*	*
*^	*	*	*	*
4.f/	8f\L	.	.	4.a\	.
.	8F\J	.	16ff/LL	.	.
.	.	.	16ee/JJ	.	.
.	4B-\	.	4dd/	.	.
16e/LL	.	.	.	16g\LL	.
16d/JJ	.	.	.	16f\JJ	.
=20	=20	=20	=20	=20	=20
8e/)	8B-\L	.	8cc/)	8g\	.
8r	(8A\	.	(8f/L	8r	p
4r	8G\	.	8g/	4r	.
.	8F\J	.	8a/J	.	.
2r	4E\) 4G\ 4B-\ 4c\	.	8b-/)	4g\	.
.	.	.	(4gg/	.	.
.	4F\ 4A\ 4c\	.	.	4a\	mf
.	.	.	8ff/	.	.
=21	=21	=21	=21	=21	=21
(4c/	8C\L	.	8ee/	8g\L	.
.	8D\J	.	4dd/	8f\J	.
4B-/)	4E\	.	.	4.g\	.
.	.	.	16cc/LL	.	.
.	.	.	16b-/JJ	.	.
2r	4F\ 4c\	.	4a/	.	>
.	.	.	.	4f\	.
.	4C\ 4G\ 4c\	.	4g/	.	.
.	.	.	.	8e\	.
*v	*v	*	*	*	*
=22	=22	=22	=22	=22
(8FF/L	.	4.f/	8f\	p
8C/	.	.	4c\	.
8D/	.	.	.	.
8E/J	.	8g/	8B-\	.
8F/L)	.	8c/)	8B-\L	.
(8FF/	.	4f/	8A\	.
8C/	.	.	8G\J	.
8CC/J	.	[8G/ [8B-/ [8c/ [8e/	8r	.
=23	=23	=23	=23	=23
4FF/)	.	8G/] 8B-/] 8c/] 8e/]	2r	.
.	.	4A/ 4c/ 4f/	.	<
4FF/	.	.	.	.
.	.	8B-/ 8e/ 8g/	.	.
4FF/	.	[8a/	4c\	.
.	.	4f/ 4a/]	.	.
4FF/	.	.	4c\	.
.	.	8e/ 8g/ (8b-/	.	.
*	*	*v	*v	*
=24	=24	=24	=24
*>A1	*>A1	*>A1	*>A1
*^	*	*	*
4FF/	>	8g/ [8a/	4c\	.
.	.	4f/ 4a/])	.	.
4FF/	.	.	4c\	.
.	.	8e/ 8g/ (8b-/	.	.
4FF/	p	4c/ 4f/ 4a/)	2r	.
4r	.	4r	.	.
*v	*v	*	*	*
=25:|!	=25:|!	=25:|!	=25:|!
*>A2	*>A2	*>A2	*>A2
*	*	*^	*
4FF/	>	8g/ 8a/	4c\	.
.	.	4f/ 4a/	.	.
4FF/	.	.	4c\	.
.	.	8e/ 8g/ (8b-/	.	.
8FF/	.	8c/ 8f/ 8a/	2r	p
(4F\	.	(8A/ 8c/L)	.	.
.	.	8Bn/ 8d/	.	.
8E\	.	8c/ 8e/J	.	.
*	*	*v	*v	*
=26!|:	=26!|:	=26!|:	=26!|:
*>B	*>B	*>B	*>B
8D\)	.	8d/) 8f/L	.
(4G\	.	(8Bn/ 8d/	.
.	.	8c#/ 8e/	.
8F\	.	8d/ 8f/J	.
4E\ 4G\	.	8e/) 8g/	.
.	.	(4d/ 4f/	.
4AA\ 4A\	.	.	.
.	.	8c#/) 8e/	.
=27	=27	=27	=27
*^	*	*^	*
4D/)	8D\L	.	8f#/L	(4dd\	<
.	8B-\ (8d\	.	8g/J	.	.
4r	8A\ 8c\	.	8a/L	8f#\L	.
.	8G\ [8d\J	.	16b-/L	8g\J	.
.	.	.	16cc/JJ	.	.
4.d/]	8F#\L	.	4.dd/)	8a\L	.
.	8G\	.	.	8b-\	.
.	8Fn\	.	.	8a\	mf
16B-/LL	8E-\J	.	(8gg/	8g\J	.
16c/JJ	.	.	.	.	.
=28	=28	=28	=28	=28	=28
8d/L	4D\	.	8ff#/L	8a\L	.
8c/	.	.	8ee-/	16g\L	.
.	.	.	.	16f#\J	.
8B-/	4D\	.	8dd/	8g\	.
8A/J	.	.	[8cc/J	8a\J	.
2r	8G\)	.	8cc/L]	8d\	.
.	(4B-\	.	16b-/L	4g\	.
.	.	.	16cc/JJ	.	.
.	.	.	4dd/	.	.
.	8Bn\)	.	.	8fn\	.
=29	=29	=29	=29	=29	=29
(4C/	8C\L	.	4cc/)	(8e\L	.
.	8A\ 8c\	.	.	8f\J	p
4r	8G\ 8B-\	.	8g/L	8e\L	<
.	8F\ [8c\J	.	16a/L	8f\J	.
.	.	.	16b-/JJ	.	.
4.c/]	8E\L	.	4.cc/	8g\L	.
.	8F\	.	.	8a\	.
.	8E\	.	.	8g\	mf
16A/LL	8D\J	.	8ff/	8f\J	.
16Bn/JJ	.	.	.	.	.
=30	=30	=30	=30	=30	=30
8c/L	4C\)	.	8ee/L	8g\L	.
8B-/	.	.	8dd/	16f\L	.
.	.	.	.	16e\J	.
(8A/	4C\	.	8cc/J	8f\	.
8G/J	.	.	4b-/	8g\J	.
2r	4F\)	.	.	8c\)	.
.	.	.	4a/	4f\	.
.	([4c\	.	.	.	.
.	.	.	16g/LL	16e\LL	.
.	.	.	16f/JJ	16d\JJ	.
=31	=31	=31	=31	=31	=31
8e/L	8c\L]	.	8g/	2.r	.
16d/L	16B-\L	.	(4cc/	.	.
16c/JJ	16A\JJ	.	.	.	.
8d/L	4G\	.	.	.	.
[8d/J	.	.	[8b-/	.	.
4d/]	4.D\)	.	8b-/L]	.	.
.	.	.	16a/L	.	.
.	.	.	16g/J	.	.
4r	.	.	8a/	8f\L	.
.	(16c\LL	.	[8dd^/J)	16e\L	.
.	16B-\JJ	.	.	16d\JJ	.
=32	=32	=32	=32	=32	=32
4r	4A\	.	8dd/]	8e\	.
.	.	.	4cc/	(4a\	.
4.e/	4.E\)	.	.	.	.
.	.	.	16bn/LL	16g#\LL	.
.	.	.	16a/JJ	16f#\JJ	.
.	.	.	8b/L	8g#\L	.
16d/LL	4r	.	8cc/	8a\	.
16c/J	.	.	.	.	.
8d/	.	.	8dd/	8g#\	.
([8e/J	16Bn\LL	.	16cc/L	8a\J	.
.	16A\JJ	.	16dd/JJ	.	.
=33	=33	=33	=33	=33	=33
4.e/]	8G#\L	.	4.ee/	8bn\L	.
.	8A\	.	.	8cc\	.
.	8Gn\	.	.	8b\)	.
16c/LL	8F\J	.	(8aa/	8a\J	f
16d/JJ	.	.	.	.	.
8e/L	4E\	.	8gg#/L	8b\L	.
8d/	.	.	8ffn/	16a\L	.
.	.	.	.	16g\J	.
8c/	4E\	.	8ee/	8a\	.
8Bn/J	.	.	[8dd/J	8b\J	.
=34	=34	=34	=34	=34	=34
4.A/	8A\)	.	8dd/L]	8e\	.
.	(4AA\	.	16cc#/L	4a\	.
.	.	.	16bn/J	.	.
.	.	.	8cc#/	.	.
16G/LL	8BBn\	.	8dd/J	8d\	.
16F/JJ	.	.	.	.	.
8E/L	8C#\L	.	8ee/)	(8gn\L	.
8F/	8D\	.	4dd/	8f\	.
8G/	8E\)	.	.	8e\	.
([8A/J	8AA\J	.	8cc#/	8a\J	.
=35	=35	=35	=35	=35	=35
8A/L]	4.BB-\	.	4.dd/	8d\L)	.
16G/L	.	.	.	(8d\J	.
16F#/JJ	.	.	.	.	.
4.G/)	.	.	.	4.g\	mf
.	(8C\	.	8ee-/	.	.
.	8D\)	.	8b-/L	.	.
4.r	(4d\	.	16a/L	16fn\LL	.
.	.	.	16g/J	16en\JJ	.
.	.	.	8a/	[4f\)	.
.	8c\	.	8dd/J	.	.
=36	=36	=36	=36	=36	=36
4.r	8Bn\)	.	8dd/	8f\]	.
.	(4c\	.	(4g/	16e-\LL	.
.	.	.	.	16d\J	.
.	.	.	.	8e-\	.
8d/	8A-\	.	4cc/)	8f\J	.
8e-/L	4G\)	.	.	8g\L	.
16d/L	.	.	(4gg/	16bn\L	.
16c/JJ	.	.	.	16a\J	.
4d/	4G\	.	.	8b\	.
.	.	.	[8ff/	8dd\J	.
=37	=37	=37	=37	=37	=37
4c/	(8c\	.	8ff/L]	8g\	.
.	4C\	.	16een/L	4cc\	.
.	.	.	16dd/J	.	.
2c/	.	.	8ee/	.	.
.	8D\	.	8ff/J	16b-\LL	.
.	.	.	.	16a\JJ	.
.	8E\L	.	8gg/	8g\L	.
.	8F\J	.	(4ff/)	8a\J	.
4B-/	4G\	.	.	[4b-\	.
.	.	.	8ee/	.	.
=38	=38	=38	=38	=38	=38
8c/	4F\)	.	8ff/)	8b-\L]	.
(4f/	.	.	(4cc/	16a\L	.
.	.	.	.	16g\J	.
.	4F\	.	.	8a\	.
16e-/LL	.	.	8dd/	8dd\J	.
16d/JJ	.	.	.	.	.
8c/L	4F\	.	8ee-/L	4.a\	.
8d/	.	.	8dd/J	.	.
8e-/	4F\	.	[4cc/	.	.
8f/J	.	.	.	[8a\)	.
=39	=39	=39	=39	=39	=39
8d/)	4G\	.	8cc/]	8a\]	<
(4g/	.	.	(4dd/	16b-\LL	.
.	.	.	.	16a\JJ	.
.	2G\	.	.	4b-\	.
8en/	.	.	[8gg/	.	.
8c#/L	.	.	8gg/L]	(8a\)	.
16d/L	.	.	16ff/L	4dd\	.
16e/J	.	.	16gg/J	.	.
8f/	8F\L	.	8aa/	.	.
8d/J	8G\J	.	8bb-/J	[8dd\	f
*v	*v	*	*	*	*
=40	=40	=40	=40	=40
8A\)	.	8ff/L	8dd\L]	.
(4a\	.	16ee-/L	16cc\L	.
.	.	16dd/JJ	16b-\JJ	.
.	.	8ee-/L	4.cc\	.
8g\	.	8aa/J	.	.
(8f#\)	.	8.dd/L	.	.
4g\	.	.	16b-\LL	.
.	.	16cc#/Jk	16a\JJ	.
.	.	8dd/L	[4b-\	.
8fn\	.	8gg/J	.	.
=41	=41	=41	=41	=41
8e\	.	8.ccn/L	8b-\L]	.
(4f\)	.	.	16a\L	.
.	.	16b-/Jk	16g\JJ	.
.	.	8cc/L	4.a\	>
8e\	.	8ff/J	.	.
(8d\)	.	8.b-/L	.	.
4e\	.	.	16g\LL	.
.	.	16a/Jk	16f#\JJ	.
.	.	8b-/L	[4g\	.
8d\	.	8ee/J	.	.
=42	=42	=42	=42	=42
8c#\)	.	4.a/	8g\L]	p
(4d\	.	.	16fn\L	.
.	.	.	16e\J	.
.	.	.	8f\	.
16cn\LL	.	8dd/	8g\J	<
16B-\JJ	.	.	.	.
8A\) 8e\L	.	8cc#/L	8a\L)	.
8F\ (8d\	.	(8dd/	8a\	.
8E\ 8c#\)	.	8ee/	8g\)	.
8D\ 8d\J	.	16ff/L	8a\J	.
.	.	16gg/JJ	.	.
=43	=43	=43	=43	=43
*^	*	*	*	*
4A/	(8C#\L	.	8aa/L	4.a\	f
.	8D\	.	8ff/	.	.
4A/	8Cn\	.	8ee/	.	.
.	8BB-\J	.	[8dd/J	(16f\LL	.
.	.	.	.	16g\JJ	.
8A/	4AA\)	.	8dd/L]	8a\)	.
(4A/	.	.	(16cc#/L	4e\	.
.	.	.	16bn/J	.	.
.	4r	.	8cc#/	.	.
16G/LL	.	.	8dd/J	8f\	.
16F/JJ	.	.	.	.	.
=44	=44	=44	=44	=44	=44
8E/	2r	.	8ee/L	8g\L	.
4D/	.	.	8ff/J	8a\	.
.	.	.	4.gg/)	8b-\	.
8C#/	.	.	.	[8a\J	.
8D/	4D\	.	.	4a\]	.
(4d/)	.	.	(16ff#/LL	.	.
.	.	.	16ee/J	.	.
.	4r	.	8ff#/	8a\L	.
16cn/LL	.	.	8gg/J	8b-\J	.
16B-/JJ	.	.	.	.	.
*v	*v	*	*	*	*
=45	=45	=45	=45	=45
8A\	.	8aa/L	8cc\L	.
4G\	.	8bb-/J	8dd\	.
.	.	4.ccc/)	8ee-\	.
8F#\	.	.	[8dd\J	.
8G\) 8d\	.	.	8dd\]	.
(8g\L	.	(4bb-/	8dd\	.
8e\	.	.	4cc\	.
8fn\J	.	[8ff/ [8aa/	.	.
=46	=46	=46	=46	=46
8d\L	.	8ff/] 8aa/]	4b-\	.
8e\	.	4een/ 4gg/	.	.
8c\	.	.	4a\	.
8d\J	.	4dd/ 4ff/	.	.
8B-\L	.	.	4g\	.
8c\	.	4cc/ 4ee/	.	.
8A\	.	.	4f\	.
16B-\L	.	[8b-/ [8dd/)	.	.
16A\JJ	.	.	.	.
=47	=47	=47	=47	=47
8G\L	.	8b-/] 8dd/]	8e\	.
16A\L	.	(8cc#/L	4a\	.
16G\J	.	.	.	.
8F\ 8A\	.	8dd/	.	.
8E\ 8G\J	.	8ee/J	16bn\LL	.
.	.	.	16cc#\JJ	.
8D\ 8A\)	.	8ff/L	16dd\LL	.
.	.	.	16ccn\	.
4GG/ 4G/	.	16gg/L	16b-\	.
.	.	16ff/J	16a\JJ	.
.	.	8ee/	8g\L	.
(8GG/ 8G/	.	8dd/J	8f\J	.
=48	=48	=48	=48	=48
8AA\) 8A\	.	8cc#/)	8e\	.
(8c#\L	.	(8ee/L	4a\	p
8d\	.	8ff/	.	<
8e\J	.	8cc#/J	8g\ 8b-\	.
8f\)	.	8dd/)	8a\	.
(8f#\L	.	(8aa/L	4dd\	.
8g\	.	8bb-/	.	.
8a\J	.	8ff#/J	8cc#\ 8ee\	.
=49	=49	=49	=49	=49
8b-\)	.	8gg/)	8dd\	.
(8a\L	.	(4ffn/	4dd\	f
(8g\J)	.	.	.	.
4g\	.	16ee/LL	16cc#\LL	.
.	.	16dd/JJ	16bn\JJ	.
.	.	8ee/)	(8cc#\	.
8f\L	.	8dd/L	8a\L	>
8e\	.	8ccn/	8g\	.
8d\J	.	8b-/J	8f\J	.
=50	=50	=50	=50	=50
8c#\L	.	4.a/	8e\L	.
8d\	.	.	8f\	.
8cn\	.	.	8e\	.
8B-\J)	.	8g/	8d\J	.
4AA/	.	8a/	8c#\)	.
.	.	(8c#/ 8e/L	4.r	p
4AA/	.	8d/ 8f/	.	.
.	.	8G/ 8B-/ 8c#/J	.	.
*	*	*v	*v	*
=51	=51	=51	=51
4AA/	.	8F#/) 8A/ 8d/	.
.	.	(8f#/ 8a/L	<
4AA/	.	8g/ 8b-/	.
.	.	8cn/ 8en/ 8f#/J	.
4AA/	.	8Bn/) 8d/ 8g/	.
.	.	(8g#/ 8bn/L	.
4AA/	.	8a/ 8cc/	.
.	.	8d/ 8fn/ 8g#/J	.
=52	=52	=52	=52
4AA/	.	8c#/) 8en/ 8a/	.
.	.	8cc#\ (8ee\L	f
4AA/	.	8dd\ 8ff\	.
.	.	8g\ 8b-\ 8cc#\J	.
4AA/	.	8f/ 8a/ 8dd/)	.
.	.	(8d/ 8f/ 8b-/L	.
4AA/	.	8c#/ 8e/ 8a/	.
.	.	8Bn/ 8d/ 8g#/J	.
=53	=53	=53	=53
*^	*	*^	*
4r	(8A\L	.	8c#/) 8e/ 8a/	8r	.
.	8AA\	.	(4a/	8c#\L	.
4A/	8BBn\	.	.	8d\	>
.	8C#\J	.	4gn/	[8e\J	.
2r	8D\) 8A\L	.	.	8e\]	.
.	(8GG\	.	16f/LL	4d\	.
.	.	.	16g/J	.	.
.	8AA\)	.	8f/	.	.
.	(8AA\J	.	8e/J	[8c#\	p
*v	*v	*	*	*	*
=54	=54	=54	=54	=54
4DD/) 4D/	.	8e/)	(8c#\]	<
.	.	4f#/	4d\	.
4DD/ 4D/	.	.	.	.
.	.	4g/	16cn\LL	.
.	.	.	16B-\JJ	.
4D/	.	.	4.d\	.
.	.	16f#/LL	.	.
.	.	16e/JJ	.	.
4DD/	.	8f#/L	.	.
.	.	8g/J	8e\	.
=55	=55	=55	=55	=55
4DD/ 4D/	.	8f#/ 8a/	4d\)	.
.	.	4g/ (4b-/	.	.
4DD/ 4D/	.	.	4d\	.
.	.	4a/ 4cc/	.	.
4DD/ 4D/	.	.	4d\	.
.	.	16g/ 16b-/LL	.	.
.	.	16f#/ 16a/JJ	.	.
4DD/ 4D/	.	8b-/L	8d\ 8g\L	.
.	.	8cc#/J	16f#\L	.
.	.	.	16e\JJ	.
=56	=56	=56	=56	=56
8DD/ 8D/	.	8d/ 8a/ 8dd/	8r	f
(8D\	.	(4dd/)	[16fn\ 16b-\LL	.
.	.	.	16f\] 16a\JJ	.
4E\	.	.	16g\LL	.
.	.	.	16f\	.
.	.	16ccn/LL	16e\	.
.	.	16b-/JJ	16d\JJ	.
8F\)	.	8c/ 8f/ 8a/)	2r	.
4F\	.	8A/ 8c/L	.	p
.	.	8Bn/ 8d/	.	.
8E\	.	8c/ 8e/J	.	.
*	*	*v	*v	*
=57:|!	=57:|!	=57:|!	=57:|!
*>C	*>C	*>C	*>C
1DD; 1D;	.	1d; 1f#; 1a; 1dd;	f
==	==	==	==
*-	*-	*-	*-
!!!ENC: Craig Stuart Sapp
!!!END: 2006/08/11
